X:84
T:Mr Young's Delight.
% [Erased:] Duplicate p.28
T:John Malchair's Third Collection of Tunes
%%VWML:Malchair-3619-p844
F:https://www.vwml.org/record/Malchair/3619/p84
F:www.vwml.org/topics/historic-dance-and-tune-books/Malchair
Z:Eric Conrad Apr 2020
M:C|
L:1/8
K:F
c2 | A2F2 F2G2 | A4 d4 | c3d (cd) (cA) | B2 G4 B2 | A2 F4 G2 | A4 d4 |
f3g (fg) (ag) | f2 c4 f2 | d3c (de) (fd) | (cd) (cB) (Ac) (fc) |
(de) (fd) (cd) (cA) | B2G2 G2B2 | A2 F4 A2 | A4 d4 | c3d (cd) (cA) | B2 G4 ||
(ag) | (fg) (af) (ga) (bg) | (ab) (ga) (fg) (ef) | (de) (fd) (ge) (dc) | G2 c4 B>A |
(Bd) (fd) (Ac) (fc) | (Bd) (fd) (Ac) (fc) | (dc) (BA) (GA) GF | F6 |]
x2  % to avoid barring conflicts with what follows
T:Now ponder well ye Parents dear.
T:Children in the Wood., The
T:John Malchair's Third Collection of Tunes
F:https://www.vwml.org/record/Malchair/3619/p83
F:www.vwml.org/topics/historic-dance-and-tune-books/Malchair
% Z:Eric Conrad Apr 2020
M:3/4
L:1/8
K:G
A2 | BA G3A | BA G3B | ce d3B | A4 B2 | \
ce d3c | dB G3d | eg B2 A2 | G4 |]


